images/fish.svg

<svg xmlns="http://www.w3.org/2000/svg" viewBox="0 83.7 606.7 624.4" enable-background="new 0 83.7 606.7 624.4"><path d="M127.6 708.1s44.8-134.4 129.1-129.1c0 0 285.5 8.4 291.6-195.9 0 0 22-239.2-211.8-295.4 0 0 166.3 210.3-7.6 194.4 0 0 189.8 165.5-66.8 244.5 0 0-6.1.8-15.9 2.3-51.6 6.1-104 3.8-154.9-3.8-27.3-4.6-63-6.8-91.1 3-.2 0 135.7 22.8 127.4 180zm142-624.2c11.4-1.5 68.3 3.8 79 68.3 6.1 34.9-5.3 71.4-31.9 95.7-15.2 12.9-34.9 22.8-57.7 14.4 0 0-58.5-23.5-70.6-31.9 0 0 61.5-9.1 56.9-22.8 0 0-13.7-53.2-76.7-71.4-.8.1-2.3-35.6 101-52.3zm78.2 33.4s53.9 126-31.1 152.6c-.1.1 154.1 42.6 31.1-152.6z"/><circle fill="#fff" cx="282.5" cy="117.3" r="14.4"/><path d="M314.4 305.6c-5.3 14.4-21.3 50.9-9.1 48.6l36.4-16.7c6.1-3 9.1-10.6 5.3-16.7-3.8-6.8-9.9-15.9-17.5-20.5-6-3-12.9 0-15.1 5.3zm8.3 177c-7.6 9.1-21.3 20.5-38 22-5.3.8-10.6-3.8-10.6-9.1v-19c0-5.3 5.3-9.9 10.6-9.1l33.4 4.6c5.4-.1 8.4 6 4.6 10.6z"/><path stroke="#fff" stroke-width="1.135" stroke-miterlimit="10" d="M501.9 159.1l25.8 44 47.1 1.5-30.4-44-42.5-1.5zm28.9 44l25.8 61.5 45.6.8-23.5-60.7-47.9-1.6zm24.3 58.5l14.4 72.9 36.4 6.1-3.8-75.2-47-3.8zm15.1 69.9l-7.6 63 22.8 2.3s11.4-35.7 21.3-59.2l-36.5-6.1z"/><path d="M564.9 396l15.9 1.5-24.3 40.2 8.4-41.7z"/><path fill="#fff" stroke="#000" stroke-miterlimit="10" d="M511.8 163.7"/></svg>

<?xml version="1.0" encoding="utf-8"?>
<!-- Generator: Adobe Illustrator 18.1.1, SVG Export Plug-In . SVG Version: 6.00 Build 0)  -->
<svg version="1.1" id="Layer_1" xmlns="http://www.w3.org/2000/svg" xmlns:xlink="http://www.w3.org/1999/xlink" x="0px" y="0px"
	 viewBox="0 83.7 606.7 624.4" enable-background="new 0 83.7 606.7 624.4" xml:space="preserve">
<path d="M127.6,708.1c0,0,44.8-134.4,129.1-129.1c0,0,285.5,8.4,291.6-195.9c0,0,22-239.2-211.8-295.4c0,0,166.3,210.3-7.6,194.4
	c0,0,189.8,165.5-66.8,244.5c0,0-6.1,0.8-15.9,2.3c-51.6,6.1-104,3.8-154.9-3.8c-27.3-4.6-63-6.8-91.1,3
	C0,528.1,135.9,550.9,127.6,708.1L127.6,708.1z M269.6,83.9c11.4-1.5,68.3,3.8,79,68.3c6.1,34.9-5.3,71.4-31.9,95.7
	c-15.2,12.9-34.9,22.8-57.7,14.4c0,0-58.5-23.5-70.6-31.9c0,0,61.5-9.1,56.9-22.8c0,0-13.7-53.2-76.7-71.4
	C167.8,136.3,166.3,100.6,269.6,83.9L269.6,83.9z M347.8,117.3c0,0,53.9,126-31.1,152.6C316.6,270,470.8,312.5,347.8,117.3z"/>
<circle fill="#FFFFFF" cx="282.5" cy="117.3" r="14.4"/>
<path d="M314.4,305.6c-5.3,14.4-21.3,50.9-9.1,48.6l36.4-16.7c6.1-3,9.1-10.6,5.3-16.7c-3.8-6.8-9.9-15.9-17.5-20.5
	C323.5,297.3,316.6,300.3,314.4,305.6z M322.7,482.6c-7.6,9.1-21.3,20.5-38,22c-5.3,0.8-10.6-3.8-10.6-9.1v-19
	c0-5.3,5.3-9.9,10.6-9.1l33.4,4.6C323.5,471.9,326.5,478,322.7,482.6z"/>
<path stroke="#FFFFFF" stroke-width="1.135" stroke-miterlimit="10" d="M501.9,159.1l25.8,44l47.1,1.5l-30.4-44L501.9,159.1z
	 M530.8,203.1l25.8,61.5l45.6,0.8l-23.5-60.7L530.8,203.1z M555.1,261.6l14.4,72.9l36.4,6.1l-3.8-75.2L555.1,261.6z M570.2,331.5
	l-7.6,63l22.8,2.3c0,0,11.4-35.7,21.3-59.2L570.2,331.5z"/>
<path d="M564.9,396l15.9,1.5l-24.3,40.2L564.9,396z"/>
<path fill="#FFFFFF" stroke="#000000" stroke-miterlimit="10" d="M511.8,163.7"/>
</svg>
